X: 11
M: C|
L: 1/8
K: Bb
V: 1
|:\
|:\
f>gf>d f>gf>d | e>cTc2 e>cTc2 |\
f>gf>d f>gf>d | c>Bc>d B2B,2 :|
V: 2 clef=bass middle=d
|:\
b4 f4 | b2B2 f2F2 |\
d2B2 e2c2 | f2F2 B4 :|\
|:\
b4 b2B2 |
f4 f4 |\
b4 d4 | e2f2 B4 :|

